X: 28923
T: Na Tithe Is Gile
R: reel
M: 4/4
K: Gmajor
|:"G" G,B,CD DG,G,D|GFED EDCD|"Em" B,G, G,2 B,G,A,G,|B,CDG, DEDC|
"G" B,CDF G2 GG|AGED FDCB,|"C" G,B,CD EDCB,|CB,A,G,"D" DB,A,B,:|
|:"G" G,2 B,C DEDC|B,CDF G2 GA|"Em" BGDB cADF|GDCB,"D" A,2 B,A,|
"G" G,B,CG, B,CDG,|DEFD"Em" G2 Bc|"C" dfgd BcdB|AFED"D" FGFD:|

